build/img/hired-white.svg

<svg width="32" height="33" viewBox="0 0 32 33" fill="none" xmlns="http://www.w3.org/2000/svg">
<path d="M28.3641 26.1921C28.7029 25.7154 28.9034 25.1305 28.9034 24.4985V20.7219C28.9034 20.3747 28.6269 20.0934 28.286 20.0934H25.5267C24.2512 20.0934 23.2135 21.1497 23.2135 22.4482V24.4985C23.2135 25.1301 23.4137 25.7146 23.7521 26.1911C23.33 26.2608 22.924 26.3985 22.5453 26.6C21.6875 25.297 20.2821 24.3983 18.6671 24.2467C18.6608 24.2449 18.6544 24.2436 18.648 24.242C19.2259 23.5852 19.5781 22.7186 19.5781 21.7696V16.6366C19.5781 16.2895 19.3016 16.0081 18.9607 16.0081H15.2105C13.5992 16.0081 12.2883 17.3426 12.2883 18.9829V21.7695C12.2883 22.7185 12.6405 23.5851 13.2183 24.242C13.212 24.2435 13.2055 24.2449 13.1992 24.2467C11.5841 24.3983 10.1786 25.297 9.3209 26.6002C8.94207 26.3988 8.53595 26.261 8.11409 26.1913C8.45254 25.7148 8.65289 25.1302 8.65289 24.4985V20.7219C8.65289 20.3747 8.37642 20.0934 8.03549 20.0934H5.27624C4.00071 20.0934 2.963 21.1497 2.963 22.4482V24.4985C2.963 25.1305 3.16346 25.7154 3.50229 26.1921C1.59127 26.51 0.12793 28.2019 0.12793 30.2358V32.0977C0.12793 32.4448 0.404398 32.7262 0.745322 32.7262H31.121C31.462 32.7262 31.7384 32.4448 31.7384 32.0977V30.2358C31.7384 28.2019 30.2751 26.51 28.3641 26.1921ZM4.19778 22.4482C4.19778 21.8429 4.68157 21.3504 5.27624 21.3504H7.4181V22.1158C7.4181 22.4912 7.11817 22.7965 6.74953 22.7965H4.19778V22.4482ZM4.19778 24.0534H6.74953C6.98475 24.0534 7.20998 24.0095 7.4181 23.9297V24.4985C7.4181 25.4023 6.69581 26.1377 5.80794 26.1377C4.92007 26.1377 4.19778 25.4023 4.19778 24.4985V24.0534ZM6.20597 27.3947L5.80794 27.7998L5.40991 27.3947H6.20597ZM8.43507 29.5671V31.4692H1.36271V30.2358C1.36271 28.8261 2.37666 27.6535 3.70097 27.4326L5.37138 29.1331C5.48721 29.2509 5.64421 29.3172 5.80794 29.3172C5.97167 29.3172 6.12868 29.2509 6.2445 29.1331L7.91541 27.432C8.21052 27.4809 8.49434 27.5778 8.75883 27.7195C8.54966 28.2955 8.43507 28.9179 8.43507 29.5671ZM15.9332 24.2231C14.6043 24.2231 13.5231 23.1224 13.5231 21.7696V20.9389H17.2129C17.6221 20.9389 18.0073 20.8325 18.3434 20.6456V21.7696C18.3434 23.1224 17.2622 24.2231 15.9332 24.2231ZM17.0094 25.48L15.9332 26.5756L14.8569 25.48H17.0094ZM13.523 18.9829H13.5231C13.5231 18.0357 14.28 17.2651 15.2105 17.2651H18.3433V18.5312C18.3433 19.1657 17.8362 19.682 17.2128 19.682H13.523V18.9829ZM22.1964 31.4692H20.9958H10.8706H9.66992V30.2122H13.69C14.0309 30.2122 14.3074 29.9308 14.3074 29.5837C14.3074 29.2366 14.0309 28.9552 13.69 28.9552H9.71505C9.97966 27.169 11.3842 25.7589 13.1477 25.5176L15.4966 27.9088C15.6172 28.0316 15.7752 28.0929 15.9332 28.0929C16.0912 28.0929 16.2492 28.0316 16.3697 27.9088L18.7187 25.5176C20.6793 25.7859 22.1964 27.499 22.1964 29.5671V31.4692ZM24.4483 22.4482C24.4483 21.8429 24.932 21.3504 25.5267 21.3504H27.6686V22.1158C27.6686 22.4912 27.3686 22.7965 27 22.7965H24.4483V22.4482ZM24.4483 24.0534H27C27.2352 24.0534 27.4604 24.0095 27.6686 23.9297V24.4985C27.6686 25.4023 26.9463 26.1377 26.0584 26.1377C25.1705 26.1377 24.4483 25.4023 24.4483 24.4985V24.0534ZM26.4564 27.3947L26.0584 27.7998L25.6604 27.3947H26.4564ZM23.4312 31.4692V29.5671C23.4312 28.9179 23.3166 28.2955 23.1074 27.7193C23.3718 27.5775 23.6555 27.4808 23.9507 27.4319L25.6218 29.1331C25.7376 29.2509 25.8946 29.3172 26.0584 29.3172C26.2221 29.3172 26.3791 29.2509 26.4949 29.1331L28.1653 27.4326C29.4896 27.6535 30.5036 28.8261 30.5036 30.2358V31.4692H23.4312Z" fill="#FFFFFF"/>
<path d="M18.9763 4.65343C18.7351 4.408 18.3443 4.408 18.1031 4.65343L15.0736 7.73754L13.7639 6.40431C13.5227 6.15882 13.1319 6.15882 12.8908 6.40425C12.6497 6.64967 12.6497 7.04764 12.8908 7.29313L14.637 9.07078C14.7528 9.18863 14.9098 9.25487 15.0736 9.25487C15.2373 9.25487 15.3943 9.18863 15.5101 9.07078L18.9763 5.54226C19.2174 5.29683 19.2174 4.89886 18.9763 4.65343Z" fill="#FFFFFF"/>
<path d="M18.4588 1.09199C18.1474 0.950642 17.7824 1.093 17.6435 1.41001C17.5045 1.72703 17.6444 2.09866 17.9559 2.24001C19.7462 3.05285 20.9031 4.86714 20.9031 6.86212C20.9031 9.65116 18.6741 11.9202 15.9344 11.9202C13.1947 11.9202 10.9657 9.65116 10.9657 6.86212C10.9657 4.87745 12.1142 3.06693 13.8917 2.24969C14.2024 2.10683 14.3406 1.73451 14.2002 1.41818C14.0599 1.1018 13.6939 0.961201 13.3835 1.10406C11.1647 2.12424 9.73096 4.38439 9.73096 6.86206C9.7309 10.3443 12.5138 13.1772 15.9344 13.1772C19.355 13.1772 22.1379 10.3443 22.1379 6.86212C22.1379 4.37157 20.6937 2.10664 18.4588 1.09199Z" fill="#FFFFFF"/>
<path d="M15.9554 0.546997H15.9333C15.5924 0.546997 15.3159 0.828377 15.3159 1.1755C15.3159 1.52262 15.5924 1.804 15.9333 1.804H15.9496C15.9506 1.804 15.9515 1.804 15.9526 1.804C16.2922 1.804 16.5683 1.52457 16.5699 1.17845C16.5715 0.831331 16.2964 0.548631 15.9554 0.546997Z" fill="#FFFFFF"/>
<path d="M16.3697 29.1392C16.255 29.0223 16.0957 28.9551 15.9333 28.9551C15.7709 28.9551 15.6116 29.0223 15.4968 29.1392C15.382 29.2561 15.3159 29.4183 15.3159 29.5836C15.3159 29.7489 15.3819 29.911 15.4968 30.0279C15.6117 30.1448 15.7709 30.2121 15.9333 30.2121C16.0957 30.2121 16.255 30.1448 16.3697 30.0279C16.4846 29.911 16.5507 29.7489 16.5507 29.5836C16.5507 29.4183 16.4846 29.2561 16.3697 29.1392Z" fill="#FFFFFF"/>
</svg>

<svg width="32" height="33" fill="none" xmlns="http://www.w3.org/2000/svg"><path d="M28.364 26.192c.339-.477.54-1.061.54-1.694v-3.776a.623.623 0 00-.618-.629h-2.76c-1.275 0-2.313 1.057-2.313 2.355v2.05c0 .632.2 1.217.54 1.693-.423.07-.829.207-1.208.409a5.239 5.239 0 00-3.878-2.353l-.019-.005c.578-.657.93-1.523.93-2.472v-5.133a.623.623 0 00-.617-.629h-3.75c-1.612 0-2.923 1.335-2.923 2.975v2.787c0 .948.352 1.815.93 2.472l-.019.005A5.238 5.238 0 009.321 26.6a3.932 3.932 0 00-1.207-.409 2.915 2.915 0 00.539-1.692v-3.777a.623.623 0 00-.618-.629H5.276c-1.275 0-2.313 1.057-2.313 2.355v2.05c0 .633.2 1.217.54 1.694-1.912.318-3.375 2.01-3.375 4.044v1.862c0 .347.276.628.617.628h30.376a.623.623 0 00.617-.628v-1.862c0-2.034-1.463-3.726-3.374-4.044zM4.198 22.448a1.09 1.09 0 011.078-1.098h2.142v.766c0 .375-.3.68-.668.68H4.198v-.348zm0 1.605H6.75c.235 0 .46-.044.668-.123v.569c0 .903-.722 1.639-1.61 1.639-.888 0-1.61-.736-1.61-1.64v-.445zm2.008 3.342l-.398.405-.398-.405h.796zm2.23 2.172v1.902H1.362v-1.233c0-1.41 1.014-2.582 2.338-2.803l1.67 1.7a.612.612 0 00.873 0l1.671-1.701c.296.049.58.146.844.288a5.403 5.403 0 00-.324 1.847zm7.497-5.344c-1.329 0-2.41-1.1-2.41-2.453v-.831h3.69c.41 0 .794-.107 1.13-.293v1.124c0 1.352-1.08 2.453-2.41 2.453zm1.076 1.257l-1.076 1.096-1.076-1.096h2.152zm-3.486-6.497c0-.947.757-1.718 1.688-1.718h3.132v1.266c0 .635-.507 1.151-1.13 1.151h-3.69v-.7zm8.673 12.486H9.67v-1.257h4.02c.34 0 .617-.281.617-.628a.623.623 0 00-.617-.629H9.715c.265-1.786 1.67-3.196 3.433-3.437l2.349 2.39a.61.61 0 00.873 0l2.349-2.39c1.96.268 3.477 1.981 3.477 4.05v1.901zm2.252-9.02a1.09 1.09 0 011.079-1.099h2.142v.766c0 .375-.3.68-.669.68h-2.552v-.348zm0 1.604H27c.235 0 .46-.044.669-.123v.569c0 .903-.723 1.639-1.61 1.639-.889 0-1.61-.736-1.61-1.64v-.445zm2.008 3.342l-.398.405-.398-.405h.796zm-3.025 4.074v-1.902c0-.65-.114-1.271-.324-1.848a2.73 2.73 0 01.844-.287l1.67 1.701a.612.612 0 00.874 0l1.67-1.7c1.325.22 2.339 1.393 2.339 2.803v1.233H23.43zM18.976 4.653a.61.61 0 00-.873 0l-3.03 3.085-1.31-1.334a.61.61 0 00-.872 0 .637.637 0 000 .89l1.746 1.777a.612.612 0 00.873 0l3.466-3.529a.637.637 0 000-.889z" fill="#FFF"/><path d="M18.459 1.092a.613.613 0 00-.816.318.633.633 0 00.313.83c1.79.813 2.947 2.627 2.947 4.622 0 2.79-2.229 5.058-4.969 5.058s-4.968-2.269-4.968-5.058c0-1.985 1.148-3.795 2.926-4.612a.633.633 0 00.308-.832.613.613 0 00-.816-.314c-2.22 1.02-3.653 3.28-3.653 5.758 0 3.482 2.783 6.315 6.203 6.315 3.421 0 6.204-2.833 6.204-6.315 0-2.49-1.444-4.755-3.68-5.77z" fill="#FFF"/><path d="M15.955.547h-.022a.623.623 0 00-.617.628c0 .348.276.629.617.629h.02c.34 0 .615-.28.617-.626a.623.623 0 00-.615-.631zm.415 28.593a.616.616 0 00-.437-.185.616.616 0 00-.436.184.64.64 0 000 .889.617.617 0 00.436.184.616.616 0 00.437-.184.639.639 0 000-.889z" fill="#FFF"/></svg>
